PortableApps/LibreOfficePortable/App/libreoffice/help/media/icon-themes/wizards/res/landscape_32.svg

<svg viewBox="0 0 32 32" xmlns="http://www.w3.org/2000/svg"><path d="m4 7v18h24v-12l-6-6z" fill="#fff"/><path d="m4 6c-.554 0-1 .446-1 1v18c0 .554.446 1 1 1h24c.554 0 1-.446 1-1v-6.570312a.50005.50005 0 0 0 0-.035157v-4.394531-.5a.50005.50005 0 0 0 -.146484-.353516l-.853516-.853515-5.292969-5.292969-.853515-.8535156a.50005.50005 0 0 0 -.353516-.1464844h-.5-11zm0 1h5.9648438 11.0351562v6c0 .554.446 1 1 1h6v4.394531 6.605469h-24zm18 .7070312 5.292969 5.2929688h-5.292969z" fill="#808080"/></svg>

<?xml version="1.0" encoding="UTF-8" standalone="no"?>
<svg
   xmlns:dc="http://purl.org/dc/elements/1.1/"
   xmlns:cc="http://creativecommons.org/ns#"
   xmlns:rdf="http://www.w3.org/1999/02/22-rdf-syntax-ns#"
   xmlns:svg="http://www.w3.org/2000/svg"
   xmlns="http://www.w3.org/2000/svg"
   xmlns:sodipodi="http://sodipodi.sourceforge.net/DTD/sodipodi-0.dtd"
   xmlns:inkscape="http://www.inkscape.org/namespaces/inkscape"
   viewBox="0 0 32 32"
   id="svg2"
   version="1.1"
   inkscape:version="0.91 r13725"
   sodipodi:docname="landscape_32.svg">
  <metadata
     id="metadata10">
    <rdf:RDF>
      <cc:Work
         rdf:about="">
        <dc:format>image/svg+xml</dc:format>
        <dc:type
           rdf:resource="http://purl.org/dc/dcmitype/StillImage" />
      </cc:Work>
    </rdf:RDF>
  </metadata>
  <defs
     id="defs8" />
  <sodipodi:namedview
     pagecolor="#ffffff"
     bordercolor="#666666"
     borderopacity="1"
     objecttolerance="10"
     gridtolerance="10"
     guidetolerance="10"
     inkscape:pageopacity="0"
     inkscape:pageshadow="2"
     inkscape:window-width="2560"
     inkscape:window-height="1375"
     id="namedview6"
     showgrid="true"
     inkscape:object-nodes="true"
     inkscape:zoom="41.896077"
     inkscape:cx="14.189345"
     inkscape:cy="15.550522"
     inkscape:window-x="0"
     inkscape:window-y="36"
     inkscape:window-maximized="1"
     inkscape:current-layer="svg2">
    <inkscape:grid
       type="xygrid"
       id="grid4161" />
  </sodipodi:namedview>
  <path
     style="opacity:1;fill:#ffffff;fill-opacity:1;fill-rule:nonzero;stroke:none;stroke-width:1;stroke-linecap:round;stroke-linejoin:round;stroke-miterlimit:4;stroke-dasharray:none;stroke-opacity:1"
     d="M 4,7 4,25 28,25 28,13 22,7 Z"
     id="rect4228"
     inkscape:connector-curvature="0"
     sodipodi:nodetypes="cccccc" />
  <path
     style="opacity:1;fill:#808080;fill-opacity:1;fill-rule:nonzero;stroke:none;stroke-width:1;stroke-linecap:round;stroke-linejoin:round;stroke-miterlimit:4;stroke-dasharray:none;stroke-opacity:1"
     d="M 4 6 C 3.446 6 3 6.446 3 7 L 3 25 C 3 25.554 3.446 26 4 26 L 28 26 C 28.554 26 29 25.554 29 25 L 29 18.429688 A 0.50005 0.50005 0 0 0 29 18.394531 L 29 14 L 29 13.5 A 0.50005 0.50005 0 0 0 28.853516 13.146484 L 28 12.292969 L 22.707031 7 L 21.853516 6.1464844 A 0.50005 0.50005 0 0 0 21.5 6 L 21 6 L 10 6 L 4 6 z M 4 7 L 9.9648438 7 L 21 7 L 21 13 C 21 13.554 21.446 14 22 14 L 28 14 L 28 18.394531 L 28 25 L 4 25 L 4 7 z M 22 7.7070312 L 27.292969 13 L 22 13 L 22 7.7070312 z "
     id="rect4163" />
</svg>
